static/assets/template/assets/img/icons/essential/detailed/Earth.svg

<svg height="150" viewBox="0 0 122 150" width="122" xmlns="http://www.w3.org/2000/svg"><g fill="none" fill-rule="evenodd" transform="translate(1 2)"><path d="m119 55.8c0 8.9-2.2 17.3-6.1 24.6-4.3 8-10.6 14.8-18.3 19.7-8.1 5.1-17.7 8.1-28 8.1-28.9 0-52.4-23.5-52.4-52.4 0-23.4 15.4-43.2 36.6-50 5-1.6 10.3-2.4 15.8-2.4 8.3 0 16.2 1.9 23.2 5.4 17.3 8.5 29.2 26.4 29.2 47z" fill-rule="nonzero"/><path d="m119 57.7c0 8.6-2.1 16.6-5.9 23.7-4.1 7.7-10.2 14.3-17.6 18.9-7.8 4.9-17 7.8-26.9 7.8-18.9 0-35.3-10.4-43.9-25.7-4.1-7.3-6.5-15.8-6.5-24.7 0-22.5 14.8-41.6 35.2-48.1 4.8-1.5 9.9-2.3 15.2-2.3 8 0 15.6 1.9 22.3 5.2 11.7 5.8 20.8 15.9 25.2 28.3 1.8 5.3 2.9 11 2.9 16.9z" fill-rule="nonzero"/><path d="m116 40.8c-1.2 6.2-3.3 12.1-6.1 17.5-5 9.4-12.5 17.4-21.5 23.1-9.5 6-20.8 9.5-32.9 9.5-11.3 0-21.9-3-31-8.4-4.1-7.3-6.5-15.8-6.5-24.7 0-22.5 14.8-41.6 35.2-48.1 4.8-1.5 9.9-2.3 15.2-2.3 8 0 15.6 1.9 22.3 5.2 11.8 5.7 20.9 15.8 25.3 28.2z" fill-rule="nonzero"/><g stroke-linecap="round" stroke-linejoin="round" stroke-width="3"><path d="m23.6 25.8c6.5-9.4 16-16.5 27.2-20 5-1.6 10.3-2.4 15.8-2.4 8.3 0 16.2 1.9 23.2 5.4 17.3 8.6 29.2 26.4 29.2 47 0 8.9-2.2 17.3-6.1 24.6-4.3 8-10.6 14.8-18.3 19.7-8.1 5.1-17.7 8.1-28 8.1-28.9 0-52.4-23.5-52.4-52.4 0-3.9.4-7.8 1.3-11.4"/><path d="m17.9 36.3c.1-.2.1-.3.2-.5"/><path d="m93.1 115.9c-8.1 3.6-17.1 5.6-26.5 5.6-36.3 0-65.7-29.4-65.7-65.7 0-23.5 12.4-44.2 31-55.8"/><path d="m66.7 133.7v-12.2"/></g><path d="m50.8 134.5c-1.5.8-2.7 2.1-3.2 3.8l-2.6 7.7h42.4l-2.6-7.7c-.9-2.8-3.5-4.6-6.4-4.6l-24.4-.1c-1.1 0-3.2.9-3.2.9z" fill-rule="nonzero"/><path d="m47.1 139.7-2.1 6.3h42.4l-2.6-7.7c-.9-2.8-3.5-4.6-6.4-4.6h-24.4" stroke-linecap="round" stroke-linejoin="round" stroke-width="3"/><path d="m49.2 135.7c-.1.1-.2.2-.3.3" stroke-linecap="round" stroke-linejoin="round" stroke-width="3"/><path d="m77.8 53.7c-5.6 7.7-9.2 23-15.3 19.9s-9.7-15.3-9.2-26.1c.5-10.7-4.1-12.3-10.2-19.9-5.3-6.7-4.1-7.9 7.7-21.8 5-1.6 10.3-2.4 15.8-2.4 8.3 0 16.2 1.9 23.2 5.4 0 6.7.7 14.9 3.4 20.9 4.1 9.2-9.7 16.4-15.4 24z" fill-rule="nonzero"/><path d="m48 33.2c-.1-.1-.1-.1-.2-.2" stroke-linecap="round" stroke-linejoin="round" stroke-width="3"/><path d="m44.5 29.3c-.4-.5-.9-1.1-1.4-1.7-5.3-6.7-4.1-7.9 7.7-21.8 5-1.6 10.3-2.4 15.8-2.4 8.3 0 16.2 1.9 23.2 5.4 0 6.7.7 14.9 3.4 20.9 4.1 9.2-9.7 16.4-15.3 24-5.6 7.7-9.2 23-15.3 19.9s-9.7-15.3-9.2-26.1c.1-3.1-.1-5.5-.8-7.4" stroke-linecap="round" stroke-linejoin="round" stroke-width="3"/><path d="m112.7 80.7c-4.3 7.9-10.5 14.6-18.1 19.4-10-6.2-14.2-11.8-9.6-17.7 2.6-3.4 6.2-5.4 10.8-5.8" fill-rule="nonzero" stroke-linecap="round" stroke-linejoin="round" stroke-width="3"/><path d="m102.3 76.9c1.7.3 3.6.8 5.5 1.5" fill-rule="nonzero" stroke-linecap="round" stroke-linejoin="round" stroke-width="3"/></g></svg>

<?xml version="1.0" encoding="UTF-8"?>
<svg width="122px" height="150px" viewBox="0 0 122 150" version="1.1" xmlns="http://www.w3.org/2000/svg" xmlns:xlink="http://www.w3.org/1999/xlink">
    <!-- Generator: Sketch 51.2 (57519) - http://www.bohemiancoding.com/sketch -->
    <title>Earth</title>
    <desc>Created with Sketch.</desc>
    <defs></defs>
    <g id="Page-1" stroke="none" stroke-width="1" fill="none" fill-rule="evenodd">
        <g id="Earth" transform="translate(1.000000, 2.000000)">
            <path d="M119,55.8 C119,64.7 116.8,73.1 112.9,80.4 C108.6,88.4 102.3,95.2 94.6,100.1 C86.5,105.2 76.9,108.2 66.6,108.2 C37.7,108.2 14.2,84.7 14.2,55.8 C14.2,32.4 29.6,12.6 50.8,5.8 C55.8,4.2 61.1,3.4 66.6,3.4 C74.9,3.4 82.8,5.3 89.8,8.8 C107.1,17.3 119,35.2 119,55.8 Z" id="Shape" class="fill-neutral" fill-rule="nonzero"></path>
            <path d="M119,57.7 C119,66.3 116.9,74.3 113.1,81.4 C109,89.1 102.9,95.7 95.5,100.3 C87.7,105.2 78.5,108.1 68.6,108.1 C49.7,108.1 33.3,97.7 24.7,82.4 C20.6,75.1 18.2,66.6 18.2,57.7 C18.2,35.2 33,16.1 53.4,9.6 C58.2,8.1 63.3,7.3 68.6,7.3 C76.6,7.3 84.2,9.2 90.9,12.5 C102.6,18.3 111.7,28.4 116.1,40.8 C116.1,40.8 116.1,40.8 116.1,40.8 C117.9,46.1 119,51.8 119,57.7 Z" id="Shape" class="fill-primary-500" fill-rule="nonzero"></path>
            <path d="M116,40.8 C116,40.8 116,40.8 116,40.8 C114.8,47 112.7,52.9 109.9,58.3 C104.9,67.7 97.4,75.7 88.4,81.4 C78.9,87.4 67.6,90.9 55.5,90.9 C44.2,90.9 33.6,87.9 24.5,82.5 C20.4,75.2 18,66.7 18,57.8 C18,35.3 32.8,16.2 53.2,9.7 C58,8.2 63.1,7.4 68.4,7.4 C76.4,7.4 84,9.3 90.7,12.6 C102.5,18.3 111.6,28.4 116,40.8 Z" id="Shape" class="fill-primary-300" fill-rule="nonzero"></path>
            <path d="M23.6,25.8 C30.1,16.4 39.6,9.3 50.8,5.8 C55.8,4.2 61.1,3.4 66.6,3.4 C74.9,3.4 82.8,5.3 89.8,8.8 C107.1,17.4 119,35.2 119,55.8 C119,64.7 116.8,73.1 112.9,80.4 C108.6,88.4 102.3,95.2 94.6,100.1 C86.5,105.2 76.9,108.2 66.6,108.2 C37.7,108.2 14.2,84.7 14.2,55.8 C14.2,51.9 14.6,48 15.5,44.4" id="Shape" class="stroke-primary" stroke-width="3" stroke-linecap="round" stroke-linejoin="round"></path>
            <path d="M17.9,36.3 C18,36.1 18,36 18.1,35.8" id="Shape" class="stroke-primary" stroke-width="3" stroke-linecap="round" stroke-linejoin="round"></path>
            <path d="M93.1,115.9 C85,119.5 76,121.5 66.6,121.5 C30.3,121.5 0.9,92.1 0.9,55.8 C0.9,32.3 13.3,11.6 31.9,0" id="Shape" class="stroke-primary" stroke-width="3" stroke-linecap="round" stroke-linejoin="round"></path>
            <path d="M66.7,133.7 L66.7,121.5" id="Shape" class="stroke-primary" stroke-width="3" stroke-linecap="round" stroke-linejoin="round"></path>
            <path d="M50.8,134.5 C49.3,135.3 48.1,136.6 47.6,138.3 L45,146 L87.4,146 L84.8,138.3 C83.9,135.5 81.3,133.7 78.4,133.7 L54,133.6 C52.9,133.6 50.8,134.5 50.8,134.5 Z" id="Shape" class="fill-primary-300" fill-rule="nonzero"></path>
            <path d="M47.1,139.7 L45,146 L87.4,146 L84.8,138.3 C83.9,135.5 81.3,133.7 78.4,133.7 L54,133.7" id="Shape" class="stroke-primary" stroke-width="3" stroke-linecap="round" stroke-linejoin="round"></path>
            <path d="M49.2,135.7 C49.1,135.8 49,135.9 48.9,136" id="Shape" class="stroke-primary" stroke-width="3" stroke-linecap="round" stroke-linejoin="round"></path>
            <path d="M77.8,53.7 C72.2,61.4 68.6,76.7 62.5,73.6 C56.4,70.5 52.8,58.3 53.3,47.5 C53.8,36.8 49.2,35.2 43.1,27.6 C37.8,20.9 39,19.7 50.8,5.8 C55.8,4.2 61.1,3.4 66.6,3.4 C74.9,3.4 82.8,5.3 89.8,8.8 C89.8,15.5 90.5,23.7 93.2,29.7 C97.3,38.9 83.5,46.1 77.8,53.7 Z" id="Shape" class="fill-primary-100" fill-rule="nonzero"></path>
            <path d="M48,33.2 C47.9,33.1 47.9,33.1 47.8,33" id="Shape" class="stroke-primary" stroke-width="3" stroke-linecap="round" stroke-linejoin="round"></path>
            <path d="M44.5,29.3 C44.1,28.8 43.6,28.2 43.1,27.6 C37.8,20.9 39,19.7 50.8,5.8 C55.8,4.2 61.1,3.4 66.6,3.4 C74.9,3.4 82.8,5.3 89.8,8.8 C89.8,15.5 90.5,23.7 93.2,29.7 C97.3,38.9 83.5,46.1 77.9,53.7 C72.3,61.4 68.7,76.7 62.6,73.6 C56.5,70.5 52.9,58.3 53.4,47.5 C53.5,44.4 53.3,42 52.6,40.1" id="Shape" class="stroke-primary" stroke-width="3" stroke-linecap="round" stroke-linejoin="round"></path>
            <path d="M112.7,80.7 C108.4,88.6 102.2,95.3 94.6,100.1 C84.6,93.9 80.4,88.3 85,82.4 C87.6,79 91.2,77 95.8,76.6" id="Shape" stroke-width="3" class="stroke-primary fill-primary-100" fill-rule="nonzero" stroke-linecap="round" stroke-linejoin="round"></path>
            <path d="M102.3,76.9 C104,77.2 105.9,77.7 107.8,78.4" id="Shape" stroke-width="3" class="stroke-primary fill-primary-100" fill-rule="nonzero" stroke-linecap="round" stroke-linejoin="round"></path>
        </g>
    </g>
</svg>
